X: 12481
T: Farewell To Erin
R: reel
M: 4/4
K: Dmajor
|:D2(3FED ADFD|Addc def2D2(3FED ADFA|B2AF EDB,A,|
D2(3FED ADFD|Addc def2|dBBA BdAd|1 B2AF EDCE:|2 B2AF Egfe||
d2Bd AF~F2|DFAF BFAF|G2Bd AF~F2|DEED EABc|
d2cd B2 dB|AAFA ABde|f2ec dBcA|BdAF Egfe|
d2Bd AF~F2|DFAF BFAF|G2Bd AF~F2|DEED EABc|
dcBA B2 cB|AAFA ABde|f2ec dBcA|B2AF E2FE||

